X: 15
T:Sweets of May
N: page 4
N: hexatonic
R: Jig
C:Kevin Briggs, via EF
M:6/8
L:1/8
K:G
d/2c/2|"G"BAG "D7"AFD|"G"GAG "D7"G2d/c/| "G"BAG GAB| "C"c3 "D7"d2c|\
"G"BAG "D7"AFD| "G"GAG "D7"G2d/c/| "G"BAG "D7"AFD| "G"G3 G2:|
A| "Am"AAA A2G| "Em"E2F G3| "Am"AAA c2d| "Dm"e2d "E7"c2B|\
"Am"ABA A2G| "Em"E2F G3| "Am"ABA "G"BAG| "Am"A3 A2:|
(3A/2B/2c/2| "D"d3 d3|"D" D3 D3 |"Am"c3 c3| "Am"D3 D2D|\
 "G"GD "D7"G3A| "G"BA "C"B3c| "D7"d2d DEF| "G"G3  G2:|
